client/public/assets/ai-help/history.svg

<svg width="64" height="64" viewBox="0 0 64 64" fill="none" xmlns="http://www.w3.org/2000/svg">
<mask id="path-1-inside-1_2171_704" fill="white">
<path fill-rule="evenodd" clip-rule="evenodd" d="M23.6425 62.1771C35.6707 62.5489 44.1617 55.5461 44.1617 45.0731C44.1617 34.6001 37.7313 26.4488 25.4116 24.2509C15.5876 22.4982 2.06249 30.1382 2.06249 40.6112C1.48993 46.4277 4.91486 52.2443 9.75524 56.3683C9.8479 56.927 10.0553 58.3832 9.88806 59.3713C9.69102 60.5354 8.78472 62.1682 8.78472 62.1682C8.78472 62.1682 11.4172 62.2686 12.6758 61.6028C13.4536 61.1913 14.3252 60.2994 14.7987 59.7763C17.7114 61.2923 20.7882 62.1771 23.6425 62.1771Z"/>
</mask>
<path d="M23.6425 62.1771L23.7352 59.1785L23.6888 59.1771H23.6425V62.1771ZM25.4116 24.2509L25.9385 21.2975L25.4116 24.2509ZM2.06249 40.6112L5.04806 40.9051L5.06249 40.7585V40.6112H2.06249ZM9.75524 56.3683L12.7148 55.8774L12.5354 54.7958L11.7009 54.0848L9.75524 56.3683ZM9.88806 59.3713L6.93013 58.8707H6.93013L9.88806 59.3713ZM8.78472 62.1682L6.16171 60.7123L3.79276 64.9801L8.67043 65.166L8.78472 62.1682ZM12.6758 61.6028L11.273 58.951L11.2729 58.951L12.6758 61.6028ZM14.7987 59.7763L16.1838 57.1152L14.1292 56.0459L12.5747 57.7629L14.7987 59.7763ZM41.1617 45.0731C41.1617 49.4391 39.4195 52.9547 36.4954 55.3846C33.5325 57.8466 29.1591 59.3462 23.7352 59.1785L23.5498 65.1756C30.1541 65.3798 36.0403 63.5639 40.33 59.9992C44.6584 56.4024 47.1617 51.1801 47.1617 45.0731H41.1617ZM24.8848 27.2043C30.4952 28.2052 34.5212 30.5109 37.1422 33.5267C39.7584 36.5371 41.1617 40.468 41.1617 45.0731H47.1617C47.1617 39.2052 45.3498 33.8239 41.6709 29.5909C37.9968 25.3633 32.6477 22.4945 25.9385 21.2975L24.8848 27.2043ZM5.06249 40.6112C5.06249 36.7447 7.58251 33.0339 11.6895 30.3607C15.7893 27.6924 20.8629 26.4868 24.8848 27.2043L25.9385 21.2975C20.1363 20.2624 13.5354 22.0004 8.41653 25.3321C3.305 28.659 -0.937513 34.0047 -0.937513 40.6112H5.06249ZM11.7009 54.0848C7.26343 50.3041 4.6089 45.3665 5.04806 40.9051L-0.923083 40.3173C-1.62903 47.489 2.56628 54.1845 7.80962 58.6519L11.7009 54.0848ZM12.846 59.8719C13.1092 58.3171 12.7984 56.3812 12.7148 55.8774L6.79568 56.8593C6.83372 57.0886 6.89435 57.4985 6.92781 57.937C6.96462 58.4195 6.95212 58.7407 6.93013 58.8707L12.846 59.8719ZM8.78472 62.1682C11.4077 63.6242 11.4079 63.6239 11.408 63.6236C11.4081 63.6235 11.4083 63.6232 11.4084 63.623C11.4086 63.6226 11.4088 63.6222 11.4091 63.6217C11.4096 63.6208 11.4102 63.6198 11.4108 63.6186C11.4121 63.6164 11.4135 63.6137 11.4152 63.6106C11.4186 63.6045 11.4228 63.5968 11.4279 63.5875C11.438 63.569 11.4515 63.5442 11.4678 63.5138C11.5003 63.4531 11.5447 63.3692 11.5975 63.2666C11.7023 63.0626 11.8442 62.7771 11.9945 62.4458C12.2647 61.8502 12.6793 60.8567 12.846 59.8719L6.93013 58.8707C6.89977 59.05 6.76271 59.4551 6.53051 59.9669C6.42961 60.1893 6.33258 60.3847 6.26133 60.5233C6.22608 60.5919 6.1981 60.6447 6.18033 60.6778C6.17147 60.6943 6.16524 60.7058 6.16199 60.7117C6.16037 60.7147 6.1595 60.7163 6.15944 60.7164C6.1594 60.7164 6.15957 60.7161 6.15995 60.7154C6.16014 60.7151 6.16038 60.7147 6.16067 60.7141C6.16082 60.7139 6.16098 60.7136 6.16115 60.7133C6.16124 60.7131 6.16137 60.7129 6.16142 60.7128C6.16156 60.7125 6.16171 60.7123 8.78472 62.1682ZM11.2729 58.951C11.3243 58.9239 11.2436 58.9717 10.9521 59.0296C10.6899 59.0817 10.3751 59.1192 10.045 59.1428C9.72111 59.1659 9.42252 59.1727 9.20453 59.1735C9.09692 59.1739 9.01244 59.1728 8.95848 59.1718C8.93158 59.1713 8.91252 59.1708 8.90224 59.1705C8.89711 59.1703 8.89419 59.1702 8.89361 59.1702C8.89332 59.1702 8.89361 59.1702 8.89451 59.1702C8.89495 59.1702 8.89555 59.1703 8.8963 59.1703C8.89668 59.1703 8.89709 59.1703 8.89754 59.1703C8.89777 59.1704 8.89813 59.1704 8.89825 59.1704C8.89862 59.1704 8.89901 59.1704 8.78472 62.1682C8.67043 65.166 8.67083 65.1661 8.67125 65.1661C8.6714 65.1661 8.67183 65.1661 8.67214 65.1661C8.67275 65.1661 8.6734 65.1662 8.6741 65.1662C8.67548 65.1662 8.67704 65.1663 8.67876 65.1664C8.68219 65.1665 8.68628 65.1666 8.69101 65.1668C8.70046 65.1671 8.71248 65.1675 8.72694 65.1679C8.75584 65.1688 8.79456 65.1698 8.84211 65.1707C8.93703 65.1725 9.06804 65.1741 9.22689 65.1735C9.54182 65.1723 9.98002 65.1626 10.4716 65.1276C11.2999 65.0685 12.8409 64.9094 14.0786 64.2546L11.2729 58.951ZM12.5747 57.7629C12.3772 57.9811 12.1124 58.2583 11.835 58.5102C11.5305 58.7865 11.3349 58.9182 11.273 58.951L14.0786 64.2546C15.3795 63.5664 16.5675 62.2926 17.0227 61.7898L12.5747 57.7629ZM23.6425 59.1771C21.3827 59.1771 18.7809 58.467 16.1838 57.1152L13.4137 62.4375C16.642 64.1177 20.1937 65.1771 23.6425 65.1771V59.1771Z" fill="currentColor" mask="url(#path-1-inside-1_2171_704)"/>
<path fill-rule="evenodd" clip-rule="evenodd" d="M39.5898 39.8067C27.5114 40.1827 19.1602 33.2076 19.4129 22.7702C19.6656 12.3329 23.8202 2.01719 38.7298 2.01051C48.7285 2.00604 62.0169 7.86726 61.7642 18.3046C62.2055 24.1964 58.5026 30.09 53.4193 34.213C53.358 34.893 53.2929 36.087 53.4832 36.9174C53.7452 38.0601 54.7427 39.612 54.7427 39.612C54.7427 39.612 52.1153 39.9247 50.8195 39.3637C49.8716 38.9534 48.7549 37.8839 48.3631 37.4906C45.4516 38.9536 42.4027 39.8054 39.5898 39.8067Z" fill="#347A3F"/>
<path d="M42.8491 22.273C42.1729 21.0172 40.6445 19.9366 40.6445 19.9366C40.6445 19.9366 42.9802 21.2847 43.8772 20.6666C44.5862 20.1781 44.8219 18.6124 44.8219 18.6124L46.1744 21.1241L48.6383 22.4772L47.0174 23.2755L47.0916 26.0501L45.3964 24.0739L40.8763 25.9335C40.8763 25.9335 43.619 23.7028 42.8491 22.273Z" fill="#DFBD0A" stroke="#DFBD0A"/>
<path d="M20.4063 34.7821C24.5082 31.7595 25.8803 28.5416 30.9099 27.0422M18.4151 43.0961C26.5 39 29.4465 31.0629 37.9681 29.3102M27.7797 43.4949C27.7797 43.4949 30.0458 41.194 31.5 39.5C32.9542 37.806 37.005 36.0178 37.005 36.0178" stroke="#DFBD0A"/>
</svg>

<svg xmlns="http://www.w3.org/2000/svg" fill="none" viewBox="0 0 64 64"><mask id="a" fill="#fff"><path fill-rule="evenodd" d="M23.642 62.177c12.029.372 20.52-6.63 20.52-17.104 0-10.473-6.43-18.624-18.75-20.822-9.824-1.753-23.35 5.887-23.35 16.36-.572 5.817 2.853 11.633 7.693 15.757.093.559.3 2.015.133 3.003-.197 1.164-1.103 2.797-1.103 2.797s2.632.1 3.89-.565c.779-.412 1.65-1.304 2.124-1.827 2.912 1.516 5.99 2.401 8.843 2.401Z" clip-rule="evenodd"/></mask><path fill="currentColor" d="m23.642 62.177.093-2.998-.046-.002h-.047v3Zm1.77-37.926.527-2.954-.527 2.954ZM2.062 40.61l2.986.294.014-.147v-.147h-3Zm7.693 15.757 2.96-.49-.18-1.082-.834-.711-1.946 2.283Zm.133 3.003-2.958-.5 2.958.5Zm-1.103 2.797-2.623-1.456-2.37 4.268 4.878.186.115-2.998Zm3.89-.565-1.402-2.652 1.403 2.652Zm2.124-1.827 1.385-2.66-2.055-1.07-1.554 1.717 2.224 2.013Zm26.363-14.703c0 4.366-1.742 7.882-4.667 10.312-2.962 2.462-7.336 3.961-12.76 3.794l-.185 5.997c6.604.204 12.49-1.612 16.78-5.177 4.328-3.597 6.832-8.819 6.832-14.926h-6ZM24.885 27.204c5.61 1.001 9.636 3.307 12.257 6.323 2.616 3.01 4.02 6.941 4.02 11.546h6c0-5.868-1.812-11.25-5.491-15.482-3.674-4.228-9.023-7.097-15.732-8.294l-1.054 5.907ZM5.062 40.611c0-3.866 2.52-7.577 6.628-10.25 4.1-2.669 9.173-3.874 13.195-3.157l1.053-5.907c-5.802-1.035-12.403.703-17.521 4.035-5.112 3.327-9.355 8.673-9.355 15.28h6Zm6.639 13.474c-4.438-3.78-7.092-8.718-6.653-13.18l-5.971-.588c-.706 7.172 3.49 13.867 8.733 18.335l3.89-4.567Zm1.145 5.787c.263-1.555-.048-3.49-.131-3.995l-5.92.982c.039.23.1.64.133 1.078.037.483.024.804.002.934l5.916 1Zm-4.061 2.296a1337.723 1337.723 0 0 0 2.623 1.455l.001-.001.002-.003.004-.008.013-.023a10.822 10.822 0 0 0 .17-.321c.104-.204.246-.49.396-.821.27-.596.685-1.59.852-2.574L6.93 58.87c-.03.179-.167.584-.4 1.096a12.841 12.841 0 0 1-.37.75v-.002l.001-.002 2.624 1.455Zm2.488-3.217c.051-.027-.03.02-.32.079-.263.052-.578.09-.908.113a12.688 12.688 0 0 1-1.151.027h.004l-.113 2.998-.114 2.998h.02l.036.002.115.003c.095.001.226.003.385.002.315 0 .753-.01 1.245-.045.828-.06 2.369-.219 3.607-.873l-2.806-5.304Zm1.302-1.188c-.198.218-.463.495-.74.747-.305.276-.5.408-.562.441l2.806 5.304c1.3-.689 2.488-1.962 2.944-2.465l-4.448-4.027Zm11.067 1.414c-2.26 0-4.861-.71-7.458-2.062l-2.77 5.322c3.228 1.68 6.78 2.74 10.228 2.74v-6Z" mask="url(#a)"/><path fill="#347A3F" fill-rule="evenodd" d="M44.468 32.24c-9.66.3-16.34-5.279-16.138-13.627.202-8.348 3.525-16.6 15.45-16.605 7.998-.003 18.627 4.685 18.424 13.033.353 4.713-2.608 9.426-6.674 12.724-.049.544-.101 1.5.051 2.163.21.914 1.008 2.156 1.008 2.156s-2.102.25-3.138-.199c-.758-.328-1.652-1.184-1.965-1.498-2.329 1.17-4.768 1.852-7.018 1.852Z" clip-rule="evenodd"/><path fill="#DFBD0A" stroke="#DFBD0A" d="M44.27 18.9c-.839-1.154-2.498-2.02-2.498-2.02s2.495 1.023 3.301.29c.638-.578.662-2.161.662-2.161l1.676 2.308 2.623 1.012-1.5 1.008.444 2.74-1.944-1.733-4.23 2.448s2.42-2.578 1.465-3.892Z"/><path stroke="#DFBD0A" d="M23.698 34.291c3.661-3.543 4.591-6.916 9.375-9.074m-10.237 17.58c7.465-5.14 9.324-13.4 17.535-16.275M32.17 41.94s1.938-2.583 3.153-4.457c1.215-1.873 4.99-4.186 4.99-4.186"/></svg>
